svgs/regular/square-k.svg

<svg xmlns="http://www.w3.org/2000/svg" viewBox="0 0 448 512"><!--! Font Awesome Pro 6.0.0-alpha3 by @fontawesome - https://fontawesome.com License - https://fontawesome.com/license (Commercial License) --><path d="M384 32H64C28.65 32 0 60.65 0 96v320c0 35.35 28.65 64 64 64h320c35.35 0 64-28.65 64-64V96C448 60.65 419.3 32 384 32zM400 416c0 8.822-7.178 16-16 16H64c-8.822 0-16-7.178-16-16V96c0-8.822 7.178-16 16-16h320c8.822 0 16 7.178 16 16V416zM313.1 135.2c-9.266-9.422-24.48-9.547-33.94-.25L176 236.5V152C176 138.8 165.3 128 152 128S128 138.8 128 152v208C128 373.3 138.8 384 152 384s24-10.75 24-24V303.9l30.89-30.42l69.38 100.2C280.9 380.4 288.4 384 296 384c4.719 0 9.484-1.375 13.64-4.266c10.91-7.547 13.62-22.5 6.078-33.39l-72-104c-.7324-1.057-1.805-1.662-2.666-2.564l71.78-70.69C322.3 159.8 322.4 144.6 313.1 135.2z"/></svg>

<svg xmlns="http://www.w3.org/2000/svg" viewBox="0 0 448 512"><!-- Font Awesome Pro 6.0.0-alpha2 by @fontawesome - https://fontawesome.com License - https://fontawesome.com/license (Commercial License) --><path d="M384 32H64C28.654 32 0 60.654 0 96V416C0 451.346 28.654 480 64 480H384C419.348 480 448 451.346 448 416V96C448 60.654 419.348 32 384 32ZM400 416C400 424.822 392.822 432 384 432H64C55.178 432 48 424.822 48 416V96C48 87.178 55.178 80 64 80H384C392.822 80 400 87.178 400 96V416ZM313.094 135.156C303.828 125.734 288.609 125.609 279.156 134.906L176 236.496V152C176 138.75 165.25 128 152 128S128 138.75 128 152V360C128 373.25 138.75 384 152 384S176 373.25 176 360V303.859L206.887 273.441L276.266 373.656C280.922 380.391 288.406 384 296.016 384C300.734 384 305.5 382.625 309.656 379.734C320.562 372.188 323.281 357.234 315.734 346.344L243.734 242.344C243.002 241.287 241.93 240.682 241.068 239.779L312.844 169.094C322.281 159.797 322.406 144.609 313.094 135.156Z"/></svg>
